;FLAVOR:Marlin
;TIME:11268
;Filament used: 8.28152m
;Layer height: 0.2
;MINX:64.723
;MINY:52.829
;MINZ:0.24
;MAXX:170.277
;MAXY:157.981
;MAXZ:18.09
;Generated with Cura_SteamEngine 4.10.0
M140 S50
M105
M190 S50
M104 S200
M105
M109 S200
M82 ;absolute extrusion mode
; Ender 3 Custom Start G-code
G92 E0 ; Reset Extruder
G28 ; Home all axes
G1 Z2.0 F3000 ; Move Z Axis up little to prevent scratching of Heat Bed
G1 X0.1 Y20 Z0.3 F5000.0 ; Move to start position
G1 X0.1 Y200.0 Z0.3 F1500.0 E15 ; Draw the first line
G1 X0.4 Y200.0 Z0.3 F5000.0 ; Move to side a little
G1 X0.4 Y20 Z0.3 F1500.0 E30 ; Draw the second line
G92 E0 ; Reset Extruder
G1 Z2.0 F3000 ; Move Z Axis up little to prevent scratching of Heat Bed
G1 X5 Y20 Z0.3 F5000.0 ; Move over to prevent blob squish
G92 E0
G92 E0
G1 F2700 E-5
;LAYER_COUNT:85
;LAYER:-6
M107
G0 F9000 X76.651 Y73.781 Z0.24
;TYPE:SUPPORT-INTERFACE
G1 F2700 E0
G1 F1125 X81.767 Y68.098 E0.61038
G1 X82.155 Y67.686 E0.65556
G1 X82.934 Y66.939 E0.74171
G1 X83.03 Y66.851 E0.75211
G1 X83.669 Y66.32 E0.81843
G1 X84.157 Y65.95 E0.86731
G1 X90.355 Y61.45 E1.47871
G1 X91.173 Y60.9 E1.5574
G1 X91.264 Y60.843 E1.56597
G1 X91.814 Y60.521 E1.61684
G1 X91.912 Y60.469 E1.6257
G1 X93.1 Y59.874 E1.73176
G1 X96.323 Y58.44 E2.01335
G1 X96.352 Y58.429 E2.01582
G1 X100.019 Y56.795 E2.33628
G1 X100.777 Y56.482 E2.40175
G1 X100.874 Y56.448 E2.40995
G1 X102.288 Y55.995 E2.52847
G1 X102.416 Y55.958 E2.53911
G1 X103.096 Y55.797 E2.59489
G1 X110.552 Y54.213 E3.20334
G1 X111.381 Y54.063 E3.27059
G1 X112.392 Y53.945 E3.35184
G1 X112.568 Y53.93 E3.36594
G1 X113.215 Y53.896 E3.41766
G1 X113.434 Y53.891 E3.43515
G1 X113.769 Y53.887 E3.46189
G1 X121.231 Y53.887 E4.05754
G1 X121.72 Y53.894 E4.09658
G1 X121.861 Y53.9 E4.10784
G1 X122.795 Y53.961 E4.18256
G1 X122.934 Y53.975 E4.19371
G1 X123.631 Y54.065 E4.24981
G1 X124.427 Y54.21 E4.31439
G1 X131.885 Y55.794 E4.923
G1 X132.023 Y55.826 E4.93431
G1 X133.249 Y56.147 E5.03547
G1 X133.391 Y56.191 E5.04734
G1 X133.886 Y56.366 E5.08925
G1 X133.999 Y56.401 E5.09869
G1 X134.499 Y56.593 E5.14145
G1 X134.822 Y56.73 E5.16945
G1 X135.018 Y56.809 E5.18632
G1 X141.993 Y59.918 E5.7959
G1 X142.855 Y60.341 E5.87255
G1 X142.981 Y60.407 E5.8839
G1 X143.538 Y60.723 E5.93502
G1 X143.616 Y60.772 E5.94238
G1 X144.635 Y61.443 E6.03977
G1 X144.765 Y61.533 E6.05239
G1 X150.823 Y65.935 E6.65015
G1 X150.885 Y65.982 E6.65636
G1 X151.84 Y66.738 E6.75359
G1 X151.918 Y66.807 E6.7619
G1 X152.624 Y67.463 E6.83883
G1 X152.72 Y67.558 E6.84961
G1 X153.255 Y68.122 E6.91166
G1 X158.365 Y73.798 E7.52131
G1 X158.866 Y74.389 E7.58316
G1 X158.913 Y74.449 E7.58924
G1 X159.497 Y75.228 E7.66696
G1 X159.569 Y75.331 E7.67699
G1 X159.986 Y75.969 E7.73783
G1 X160.222 Y76.363 E7.77449
G1 X164.027 Y82.956 E8.38213
G1 X164.509 Y83.862 E8.46405
G1 X164.575 Y84.001 E8.47633
G1 X165.034 Y85.066 E8.56891
G1 X165.071 Y85.159 E8.57689
G1 X165.315 Y85.848 E8.63524
G1 X167.661 Y93.068 E9.24123
G1 X167.694 Y93.18 E9.25055
G1 X168.057 Y94.536 E9.36261
G1 X168.101 Y94.719 E9.37763
G1 X168.251 Y95.548 E9.44488
G1 X168.347 Y96.305 E9.50579
G1 X169.13 Y103.785 E10.10614
G1 X169.143 Y103.925 E10.11736
G1 X169.207 Y104.917 E10.19671
G1 X169.213 Y105.037 E10.2063
G1 X169.212 Y105.846 E10.27088
G1 X169.21 Y105.9 E10.2752
G1 X169.139 Y106.967 E10.36056
G1 X168.344 Y114.532 E10.96775
G1 X168.331 Y114.636 E10.97612
G1 X168.171 Y115.739 E11.06509
G1 X167.955 Y116.721 E11.14535
G1 X167.903 Y116.919 E11.16169
G1 X167.758 Y117.377 E11.20004
G1 X167.652 Y117.77 E11.23253
G1 X165.317 Y124.958 E11.83582
G1 X165.034 Y125.753 E11.90318
G1 X164.627 Y126.704 E11.98576
G1 X164.567 Y126.829 E11.99682
G1 X164.209 Y127.531 E12.05973
G1 X164.016 Y127.877 E12.09135
G1 X160.204 Y134.479 E12.69989
G1 X159.907 Y134.97 E12.7457
G1 X159.86 Y135.042 E12.75256
G1 X159.305 Y135.853 E12.83101
G1 X159.25 Y135.93 E12.83856
G1 X158.773 Y136.539 E12.90031
G1 X158.332 Y137.05 E12.95419
G1 X153.246 Y142.7 E13.56101
G1 X153.066 Y142.895 E13.5822
G1 X152.754 Y143.218 E13.61804
G1 X152.611 Y143.354 E13.6338
G1 X152.41 Y143.558 E13.65666
G1 X152.339 Y143.626 E13.6645
G1 X151.928 Y143.997 E13.7087
G1 X151.83 Y144.081 E13.71901
G1 X151.397 Y144.439 E13.76385
G1 X151.291 Y144.524 E13.7747
G1 X150.843 Y144.862 E13.8195
G1 X144.725 Y149.305 E14.42306
G1 X144.632 Y149.369 E14.43207
G1 X143.381 Y150.178 E14.55099
G1 X143.233 Y150.265 E14.56469
G1 X141.974 Y150.903 E14.67736
G1 X141.872 Y150.952 E14.68639
G1 X135.005 Y154.009 E15.28641
G1 X134.091 Y154.378 E15.36509
G1 X133.951 Y154.43 E15.37701
G1 X132.688 Y154.825 E15.48264
G1 X132.601 Y154.85 E15.48987
G1 X131.904 Y155.015 E15.54705
G1 X124.448 Y156.599 E16.1555
G1 X123.619 Y156.749 E16.22275
G1 X122.608 Y156.867 E16.304
G1 X122.432 Y156.882 E16.3181
G1 X121.767 Y156.917 E16.37125
G1 X121.231 Y156.925 E16.41404
G1 X113.769 Y156.925 E17.00969
G1 X113.28 Y156.918 E17.04873
G1 X113.139 Y156.913 E17.05999
G1 X112.205 Y156.851 E17.13471
G1 X112.066 Y156.837 E17.14587
G1 X111.369 Y156.747 E17.20197
G1 X110.568 Y156.601 E17.26696
G1 X103.115 Y155.018 E17.87516
G1 X102.977 Y154.986 E17.88647
G1 X101.747 Y154.664 E17.98796
G1 X101.599 Y154.616 E18.00038
G1 X100.414 Y154.184 E18.10106
G1 X100.295 Y154.138 E18.11125
G1 X99.967 Y153.996 E18.13978
G1 X93.038 Y150.909 E18.74529
G1 X92.092 Y150.445 E18.8294
G1 X91.321 Y150.003 E18.90034
G1 X91.206 Y149.932 E18.91113
G1 X90.338 Y149.352 E18.99446
G1 X84.157 Y144.862 E19.60429
G1 X84.106 Y144.824 E19.60937
G1 X83.242 Y144.144 E19.69713
G1 X82.451 Y143.424 E19.78252
G1 X82.358 Y143.333 E19.7929
G1 X81.75 Y142.697 E19.86314
G1 X76.649 Y137.028 E20.47189
G1 X76.219 Y136.529 E20.52447
G1 X75.593 Y135.711 E20.60669
G1 X75.505 Y135.585 E20.61896
G1 X74.802 Y134.487 E20.72303
G1 X70.984 Y127.878 E21.3323
G1 X70.786 Y127.52 E21.36495
G1 X70.745 Y127.443 E21.37192
G1 X70.317 Y126.581 E21.44874
G1 X70.259 Y126.452 E21.46003
G1 X69.956 Y125.727 E21.52275
G1 X69.668 Y124.913 E21.59168
G1 X67.339 Y117.744 E22.19338
G1 X67.304 Y117.624 E22.20336
G1 X66.943 Y116.277 E22.31468
G1 X66.895 Y116.068 E22.33179
G1 X66.751 Y115.277 E22.39597
G1 X66.652 Y114.499 E22.45858
G1 X65.868 Y107.01 E23.05965
G1 X65.858 Y106.888 E23.06942
G1 X65.793 Y105.888 E23.14941
G1 X65.787 Y105.763 E23.1594
G1 X65.788 Y104.977 E23.22214
G1 X65.79 Y104.909 E23.22757
G1 X65.871 Y103.741 E23.32103
G1 X66.656 Y96.281 E23.91981
G1 X66.671 Y96.163 E23.9293
G1 X66.829 Y95.075 E24.01706
G1 X67.045 Y94.091 E24.09748
G1 X67.097 Y93.893 E24.11382
G1 X67.242 Y93.435 E24.15217
G1 X67.348 Y93.042 E24.18466
G1 X69.67 Y85.895 E24.78452
G1 X69.699 Y85.808 E24.79184
G1 X69.911 Y85.208 E24.84264
G1 X69.967 Y85.061 E24.85519
G1 X70.337 Y84.187 E24.93096
G1 X70.4 Y84.052 E24.94285
G1 X70.771 Y83.317 E25.00857
G1 X70.982 Y82.939 E25.04313
G1 X74.798 Y76.331 E25.65224
G1 X75.332 Y75.479 E25.7325
G1 X75.439 Y75.323 E25.74761
G1 X76.123 Y74.401 E25.83924
G1 X76.651 Y73.781 E25.90425
G0 F9000 X76.8 Y73.615
G1 F1125 X76.8 Y137.195 E30.97948
G0 F9000 X78.4 Y138.973
G1 F1125 X78.4 Y71.838 E36.33849
G0 F9000 X80 Y70.06
G1 F1125 X80 Y140.752 E41.98143
G0 F9000 X81.6 Y142.53
G1 F1125 X81.6 Y68.283 E47.90814
G0 F9000 X83.2 Y66.709
G1 F1125 X83.2 Y144.105 E54.08623
G0 F9000 X84.8 Y145.329
G1 F1125 X84.8 Y65.483 E60.45988
G0 F9000 X86.4 Y64.321
G1 F1125 X86.4 Y146.491 E67.01905
G0 F9000 X88 Y147.653
G1 F1125 X88 Y63.159 E73.76372
G0 F9000 X89.6 Y61.998
G1 F1125 X89.6 Y148.815 E80.69383
G0 F9000 X91.2 Y149.927
G1 F1125 X91.2 Y60.883 E87.80171
G0 F9000 X92.8 Y60.024
G1 F1125 X92.8 Y150.792 E95.0472
G0 F9000 X94.4 Y151.515
G1 F1125 X94.4 Y59.295 E102.4086
G0 F9000 X96 Y58.583
G1 F1125 X96 Y152.228 E109.88375
G0 F9000 X97.6 Y152.941
G1 F1125 X97.6 Y57.872 E117.47257
G0 F9000 X99.2 Y57.159
G1 F1125 X99.2 Y153.654 E125.17522
G0 F9000 X100.8 Y154.324
G1 F1125 X100.8 Y56.473 E132.98611
G0 F9000 X102.4 Y55.962
G1 F1125 X102.4 Y154.834 E140.8785
G0 F9000 X104 Y155.205
G1 F1125 X104 Y55.604 E148.82908
G0 F9000 X105.6 Y55.265
G1 F1125 X105.6 Y155.545 E156.83386
G0 F9000 X107.2 Y155.885
G1 F1125 X107.2 Y54.925 E164.89293
G0 F9000 X108.8 Y54.585
G1 F1125 X108.8 Y156.225 E173.00627
G0 F9000 X110.4 Y156.565
G1 F1125 X110.4 Y54.245 E181.1739
G0 F9000 X112 Y53.99
G1 F1125 X112 Y156.828 E189.38287
G0 F9000 X113.6 Y156.922
G1 F1125 X113.6 Y53.889 E197.60741
G0 F9000 X115.2 Y53.887
G1 F1125 X115.2 Y156.925 E205.83235
G0 F9000 X116.8 Y156.925
G1 F1125 X116.8 Y53.887 E214.05729
G0 F9000 X118.4 Y53.887
G1 F1125 X118.4 Y156.925 E222.28223
G0 F9000 X120 Y156.925
G1 F1125 X120 Y53.887 E230.50716
G0 F9000 X121.6 Y53.893
G1 F1125 X121.6 Y156.92 E238.73122
G0 F9000 X123.2 Y156.798
G1 F1125 X123.2 Y54.01 E246.93621
G0 F9000 X124.8 Y54.29
G1 F1125 X124.8 Y156.525 E255.09705
G0 F9000 X126.4 Y156.185
G1 F1125 X126.4 Y54.63 E263.20361
G0 F9000 X128 Y54.969
G1 F1125 X128 Y155.845 E271.25597
G0 F9000 X129.6 Y155.505
G1 F1125 X129.6 Y55.309 E279.25404
G0 F9000 X131.2 Y55.649
G1 F1125 X131.2 Y155.165 E287.19784
G0 F9000 X132.8 Y154.79
G1 F1125 X132.8 Y56.03 E295.08129
G0 F9000 X134.4 Y56.555
G1 F1125 X134.4 Y154.254 E302.88005
G0 F9000 X136 Y153.567
G1 F1125 X136 Y57.247 E310.56873
G0 F9000 X137.6 Y57.96
G1 F1125 X137.6 Y152.854 E318.14358
G0 F9000 X139.2 Y152.142
G1 F1125 X139.2 Y58.674 E325.6046
G0 F9000 X140.8 Y59.387
G1 F1125 X140.8 Y151.43 E332.95187
G0 F9000 X142.4 Y150.688
G1 F1125 X142.4 Y60.118 E340.18155
G0 F9000 X144 Y61.025
G1 F1125 X144 Y149.778 E347.2662
G0 F9000 X145.6 Y148.67
G1 F1125 X145.6 Y62.14 E354.1734
G0 F9000 X147.2 Y63.303
G1 F1125 X147.2 Y147.508 E360.89501
G0 F9000 X148.8 Y146.346
G1 F1125 X148.8 Y64.466 E367.43102
G0 F9000 X150.4 Y65.628
G1 F1125 X150.4 Y145.184 E373.78153
G0 F9000 X152 Y143.933
G1 F1125 X152 Y66.884 E379.93191
G0 F9000 X153.6 Y68.506
G1 F1125 X153.6 Y142.307 E385.82303
G0 F9000 X155.2 Y140.53
G1 F1125 X155.2 Y70.283 E391.43045
G0 F9000 X156.8 Y72.06
G1 F1125 X156.8 Y138.752 E396.75409
G0 F9000 X158.4 Y136.972
G1 F1125 X158.4 Y73.84 E401.79356
G0 F9000 X160 Y75.993
G1 F1125 X160 Y134.817 E406.48915
G0 F9000 X161.6 Y132.062
G1 F1125 X161.6 Y78.751 E410.74466
G0 F9000 X163.2 Y81.524
G1 F1125 X163.2 Y129.291 E414.55763
G0 F9000 X164.8 Y126.3
G1 F1125 X164.8 Y84.524 E417.89237
G1 F2700 E412.89237
G0 F9000 X166.018 Y84.66
G0 X167.412 Y88.859
G0 X166.4 Y89.188
G1 F2700 E417.89237
G1 F1125 X166.4 Y121.625 E420.48163
G1 F2700 E415.48163
G0 F9000 X167.441 Y121.866
G0 X168.099 Y119.869
G0 X168.922 Y117.225
G0 X168 Y116.517
G1 F2700 E420.48163
G1 F1125 X168 Y94.324 E422.25317
G1 F2700 E417.25317
G0 F9000 X169.028 Y94.047
G0 X168.68 Y92.761
G0 X166.018 Y84.66
G0 X165.464 Y83.394
G0 X160.882 Y75.394
G0 X159.678 Y73.701
G0 X153.355 Y66.69
G0 X152.469 Y65.878
G0 X151.461 Y65.082
G0 X145.235 Y60.563
G0 X143.342 Y59.395
G0 X134.567 Y55.477
G0 X133.547 Y55.125
G0 X132.119 Y54.755
G0 X124.26 Y53.08
G0 X121.919 Y52.837
G0 X113.12 Y52.835
G0 X111.116 Y53.029
G0 X101.973 Y54.978
G0 X100.392 Y55.489
G0 X92.589 Y58.939
G0 X90.588 Y60.011
G0 X82.957 Y65.527
G0 X81.397 Y66.938
G0 X75.227 Y73.822
G0 X74.446 Y74.89
G0 X75.2 Y75.689
G1 F2700 E422.25317
G1 F1125 X75.2 Y135.108 E426.99625
G0 F9000 X73.6 Y132.406
G1 F1125 X73.6 Y78.405 E431.30685
G0 F9000 X72 Y81.176
G1 F1125 X72 Y129.636 E435.17513
G0 F9000 X70.4 Y126.748
G1 F1125 X70.4 Y84.052 E438.58331
G1 F2700 E433.58331
G0 F9000 X69.368 Y83.746
G0 X68.967 Y84.772
G0 X67.786 Y88.243
G0 X68.8 Y88.572
G1 F2700 E438.58331
G1 F1125 X68.8 Y122.241 E441.27092
G1 F2700 E436.27092
G0 F9000 X67.788 Y122.57
G0 X66.28 Y117.914
G0 X67.2 Y117.235
G1 F2700 E441.27092
G1 F1125 X67.2 Y93.567 E443.1602
G1 F2700 E438.1602
G0 F300 X67.2 Y93.567 Z0.54
G0 F9000 X66.078 Y93.587
G0 X65.758 Y95.036
G0 X64.802 Y103.754
G0 X64.723 Y105.797
G0 X64.808 Y107.104
G0 X65.707 Y115.488
G0 X65.91 Y116.534
G0 X66.32 Y118.051
G0 X69.002 Y126.207
G0 X69.857 Y128.042
G0 X73.925 Y135.093
G0 X74.738 Y136.346
G0 X75.38 Y137.145
G0 X79.739 Y142.054
G0 X80.53 Y141.342
;TIME_ELAPSED:313.683072
;LAYER:-5
;TYPE:SUPPORT
G1 F2700 E443.1602
G1 F1125 X83.666 Y144.478 E443.60272
G1 X83.242 Y144.143 E443.65664
G1 X82.45 Y143.423 E443.76344
G1 X82.358 Y143.331 E443.77643
G1 X81.749 Y142.696 E443.86422
G0 F9000 X83.666 Y144.478
G1 F1125 X84.105 Y144.823 E443.91993
G1 X84.157 Y144.86 E443.9263
G1 X88.935 Y148.332 E444.51563
G1 X74.408 Y133.805 E446.56554
G1 X72.473 Y130.456 E446.95148
G1 X92.816 Y150.799 E449.82209
G1 X93.038 Y150.907 E449.84673
G1 X95.384 Y151.953 E450.10302
G1 X70.618 Y127.186 E453.59784
G1 X70.316 Y126.579 E453.66549
G1 X70.258 Y126.451 E453.67952
G1 X69.955 Y125.726 E453.75792
G1 X69.667 Y124.912 E453.84408
G1 X69.623 Y124.778 E453.85815
G1 X97.935 Y153.09 E457.85328
G1 X99.966 Y153.995 E458.07514
G1 X100.295 Y154.137 E458.11089
G1 X100.413 Y154.183 E458.12353
G1 X100.46 Y154.2 E458.12852
G1 X68.943 Y122.683 E462.57591
G1 X68.263 Y120.589 E462.79559
G1 X102.546 Y154.871 E467.63322
G1 X102.977 Y154.985 E467.6777
G1 X103.115 Y155.016 E467.69182
G1 X104.371 Y155.283 E467.81994
G1 X67.583 Y118.494 E473.0112
G1 X67.339 Y117.743 E473.08999
G1 X67.303 Y117.622 E473.10258
G1 X67.002 Y116.5 E473.2185
G1 X106.167 Y155.665 E478.7451
G1 X107.963 Y156.047 E478.92831
G1 X66.686 Y114.769 E484.75302
G1 X66.652 Y114.498 E484.78027
G1 X66.514 Y113.183 E484.9122
G1 X109.759 Y156.428 E491.01454
G1 X110.568 Y156.6 E491.09706
G1 X111.368 Y156.746 E491.17821
G1 X111.509 Y156.764 E491.19239
G1 X66.349 Y111.604 E497.56495
G1 X66.183 Y110.024 E497.72347
G1 X113.066 Y156.906 E504.3391
G1 X113.139 Y156.911 E504.3464
G1 X113.279 Y156.916 E504.36038
G1 X113.769 Y156.923 E504.40928
G1 X114.497 Y156.923 E504.48192
G1 X66.018 Y108.444 E511.32283
G1 X65.868 Y107.009 E511.46679
G1 X65.857 Y106.886 E511.47912
G1 X65.856 Y106.868 E511.48091
G1 X115.911 Y156.923 E518.54422
G1 X117.325 Y156.923 E518.68531
G1 X65.787 Y105.385 E525.95787
G1 X65.788 Y104.976 E525.99868
G1 X65.789 Y104.908 E526.00547
G1 X65.85 Y104.033 E526.09299
G1 X118.74 Y156.923 E533.55634
G1 X120.154 Y156.923 E533.69743
G1 X65.975 Y102.744 E541.34267
G1 X66.109 Y101.464 E541.47109
G1 X121.565 Y156.92 E549.29653
G0 F9000 X121.566 Y156.92
G1 F1125 X121.828 Y156.914 E549.32268
G1 X122.432 Y156.88 E549.38304
G1 X122.608 Y156.865 E549.40067
G1 X122.891 Y156.832 E549.4291
G1 X66.243 Y100.185 E557.42267
G1 X66.378 Y98.905 E557.5511
G1 X124.129 Y156.655 E565.70032
G1 X124.447 Y156.598 E565.73255
G1 X125.303 Y156.416 E565.81987
G1 X66.513 Y97.625 E574.11585
G1 X66.648 Y96.346 E574.24418
G1 X126.47 Y156.168 E582.68571
G1 X127.636 Y155.92 E582.80465
G1 X66.823 Y95.107 E591.38602
G1 X66.829 Y95.074 E591.38937
G1 X67.045 Y94.09 E591.48989
G1 X67.081 Y93.951 E591.50422
G1 X128.803 Y155.673 E600.21386
G1 X129.969 Y155.424 E600.33283
G1 X67.405 Y92.861 E609.16121
G1 X67.752 Y91.794 E609.27317
G1 X131.135 Y155.177 E618.21719
G1 X131.904 Y155.014 E618.29563
G1 X132.294 Y154.921 E618.33563
G1 X68.099 Y90.726 E627.39424
G1 X68.446 Y89.659 E627.5062
G1 X133.39 Y154.603 E636.6705
G1 X133.951 Y154.429 E636.7291
G1 X134.09 Y154.377 E636.74391
G1 X134.437 Y154.236 E636.78129
G1 X68.793 Y88.591 E646.04443
G1 X69.14 Y87.524 E646.15639
G1 X135.432 Y153.816 E655.51091
G1 X136.41 Y153.381 E655.61771
G1 X69.486 Y86.457 E665.06141
G1 X69.67 Y85.894 E665.12051
G1 X69.699 Y85.807 E665.12966
G1 X69.843 Y85.399 E665.17283
G1 X137.389 Y152.945 E674.7043
G1 X138.368 Y152.51 E674.81119
G1 X70.248 Y84.391 E684.42359
G1 X70.336 Y84.186 E684.44585
G1 X70.4 Y84.051 E684.46076
G1 X70.709 Y83.437 E684.52934
G1 X139.346 Y152.074 E694.21477
G1 X140.325 Y151.639 E694.32166
G1 X71.216 Y82.53 E704.07369
G1 X71.734 Y81.634 E704.17696
G1 X141.303 Y151.203 E713.99389
G1 X141.871 Y150.951 E714.0559
G1 X141.974 Y150.902 E714.06728
G1 X142.267 Y150.753 E714.10008
G1 X72.252 Y80.737 E723.98002
G1 X72.769 Y79.84 E724.08332
G1 X143.206 Y150.277 E734.02275
G1 X143.232 Y150.264 E734.02565
G1 X143.276 Y150.24 E734.03065
G1 X143.38 Y150.177 E734.04278
G1 X144.073 Y149.729 E734.12512
G1 X73.288 Y78.944 E744.11365
G1 X73.805 Y78.048 E744.21687
G1 X144.919 Y149.162 E754.25182
G1 X145.738 Y148.567 E754.35283
G1 X74.323 Y77.151 E764.43033
G1 X74.798 Y76.33 E764.52497
G1 X74.843 Y76.257 E764.53353
