;FLAVOR:Marlin
;TIME:1927
;Filament used: 1.34814m
;Layer height: 0.2
;MINX:100.175
;MINY:90.7
;MINZ:0.2
;MAXX:134.825
;MAXY:144.3
;MAXZ:12.6
;Generated with Cura_SteamEngine 4.9.1
M140 S50
M105
M190 S50
M104 S200
M105
M109 S200
M82 ;absolute extrusion mode
; Ender 3 Custom Start G-code
G92 E0 ; Reset Extruder
G28 ; Home all axes
G1 Z2.0 F3000 ; Move Z Axis up little to prevent scratching of Heat Bed
G1 X0.1 Y20 Z0.3 F5000.0 ; Move to start position
G1 X0.1 Y200.0 Z0.3 F1500.0 E15 ; Draw the first line
G1 X0.4 Y200.0 Z0.3 F5000.0 ; Move to side a little
G1 X0.4 Y20 Z0.3 F1500.0 E30 ; Draw the second line
G92 E0 ; Reset Extruder
G1 Z2.0 F3000 ; Move Z Axis up little to prevent scratching of Heat Bed
G1 X5 Y20 Z0.3 F5000.0 ; Move over to prevent blob squish
G92 E0
G92 E0
G1 F2700 E-5
;LAYER_COUNT:63
;LAYER:0
M107
G0 F6000 X102.055 Y93.422 Z0.2
;TYPE:SKIRT
G1 F2700 E0
G1 F1200 X102.598 Y92.849 E0.02626
G1 X103.197 Y92.334 E0.05253
G1 X103.845 Y91.883 E0.07879
G1 X104.536 Y91.499 E0.10508
G1 X105.261 Y91.187 E0.13133
G1 X106.014 Y90.95 E0.15759
G1 X106.788 Y90.791 E0.18387
G1 X107.573 Y90.71 E0.21012
G1 X107.975 Y90.7 E0.22349
G1 X127.025 Y90.701 E0.8571
G1 X127.814 Y90.741 E0.88337
G1 X128.595 Y90.861 E0.90966
G1 X129.359 Y91.058 E0.9359
G1 X130.1 Y91.333 E0.96219
G1 X130.809 Y91.68 E0.98844
G1 X131.479 Y92.098 E1.01471
G1 X132.104 Y92.581 E1.04098
G1 X132.676 Y93.125 E1.06723
G1 X133.191 Y93.724 E1.09351
G1 X133.642 Y94.372 E1.11976
G1 X134.026 Y95.062 E1.14603
G1 X134.338 Y95.787 E1.17228
G1 X134.575 Y96.541 E1.19857
G1 X134.734 Y97.314 E1.22482
G1 X134.815 Y98.1 E1.2511
G1 X134.825 Y98.501 E1.26444
G1 X134.825 Y136.5 E2.52829
G1 X134.785 Y137.289 E2.55457
G1 X134.666 Y138.069 E2.58081
G1 X134.468 Y138.834 E2.60709
G1 X134.194 Y139.574 E2.63334
G1 X133.846 Y140.283 E2.65961
G1 X133.428 Y140.954 E2.6859
G1 X132.945 Y141.578 E2.71215
G1 X132.402 Y142.151 E2.7384
G1 X131.803 Y142.666 E2.76468
G1 X131.155 Y143.117 E2.79093
G1 X130.464 Y143.501 E2.81723
G1 X129.739 Y143.813 E2.84348
G1 X128.986 Y144.05 E2.86974
G1 X128.212 Y144.209 E2.89602
G1 X127.427 Y144.29 E2.92226
G1 X127.025 Y144.3 E2.93564
G1 X107.975 Y144.299 E3.56924
G1 X107.186 Y144.259 E3.59552
G1 X106.405 Y144.139 E3.6218
G1 X105.641 Y143.942 E3.64804
G1 X104.9 Y143.667 E3.67433
G1 X104.191 Y143.32 E3.70059
G1 X103.521 Y142.902 E3.72685
G1 X102.896 Y142.419 E3.75312
G1 X102.324 Y141.875 E3.77938
G1 X101.809 Y141.276 E3.80565
G1 X101.358 Y140.628 E3.83191
G1 X100.974 Y139.938 E3.85817
G1 X100.662 Y139.213 E3.88443
G1 X100.425 Y138.459 E3.91071
G1 X100.266 Y137.686 E3.93696
G1 X100.185 Y136.9 E3.96324
G1 X100.175 Y136.499 E3.97658
G1 X100.175 Y98.5 E5.24044
G1 X100.215 Y97.711 E5.26671
G1 X100.334 Y96.931 E5.29296
G1 X100.532 Y96.166 E5.31924
G1 X100.806 Y95.426 E5.34548
G1 X101.154 Y94.717 E5.37175
G1 X101.572 Y94.046 E5.39805
G1 X102.055 Y93.422 E5.42429
G0 F6000 X102.45 Y93.577
G1 F1200 X102.991 Y93.03 E5.44988
G1 X103.586 Y92.542 E5.47547
G1 X104.228 Y92.119 E5.50105
G1 X104.911 Y91.764 E5.52665
G1 X105.626 Y91.483 E5.5522
G1 X106.368 Y91.277 E5.57781
G1 X107.126 Y91.149 E5.60338
G1 X107.975 Y91.1 E5.63166
G1 X127.025 Y91.101 E6.26527
G1 X127.794 Y91.141 E6.29088
G1 X128.553 Y91.261 E6.31644
G1 X129.297 Y91.458 E6.34204
G1 X130.015 Y91.732 E6.3676
G1 X130.702 Y92.079 E6.3932
G1 X131.349 Y92.495 E6.41878
G1 X131.949 Y92.977 E6.44438
G1 X132.495 Y93.518 E6.46994
G1 X132.983 Y94.112 E6.49551
G1 X133.406 Y94.754 E6.52108
G1 X133.761 Y95.437 E6.54669
G1 X134.043 Y96.153 E6.57228
G1 X134.248 Y96.894 E6.59785
G1 X134.376 Y97.652 E6.62342
G1 X134.425 Y98.501 E6.65171
G1 X134.425 Y136.5 E7.91556
G1 X134.385 Y137.268 E7.94114
G1 X134.266 Y138.028 E7.96672
G1 X134.068 Y138.771 E7.9923
G1 X133.794 Y139.49 E8.01789
G1 X133.447 Y140.176 E8.04346
G1 X133.031 Y140.823 E8.06904
G1 X132.55 Y141.423 E8.09462
G1 X132.009 Y141.97 E8.12021
G1 X131.414 Y142.458 E8.1458
G1 X130.772 Y142.881 E8.17137
G1 X130.089 Y143.236 E8.19697
G1 X129.374 Y143.517 E8.22253
G1 X128.632 Y143.723 E8.24814
G1 X127.874 Y143.851 E8.27371
G1 X127.025 Y143.9 E8.30199
G1 X107.975 Y143.899 E8.9356
G1 X107.206 Y143.859 E8.96121
G1 X106.447 Y143.739 E8.98677
G1 X105.703 Y143.542 E9.01236
G1 X104.985 Y143.268 E9.03793
G1 X104.298 Y142.921 E9.06352
G1 X103.651 Y142.505 E9.08911
G1 X103.051 Y142.023 E9.11471
G1 X102.505 Y141.482 E9.14027
G1 X102.017 Y140.888 E9.16584
G1 X101.594 Y140.246 E9.19141
G1 X101.239 Y139.563 E9.21701
G1 X100.957 Y138.847 E9.24261
G1 X100.752 Y138.106 E9.26818
G1 X100.624 Y137.348 E9.29375
G1 X100.575 Y136.499 E9.32203
G1 X100.575 Y98.5 E10.58588
G1 X100.615 Y97.732 E10.61146
G1 X100.734 Y96.972 E10.63705
G1 X100.932 Y96.229 E10.66262
G1 X101.206 Y95.51 E10.68821
G1 X101.553 Y94.824 E10.71378
G1 X101.969 Y94.177 E10.73937
G1 X102.45 Y93.577 E10.76494
G0 F6000 X102.846 Y93.737
G1 F1200 X103.383 Y93.216 E10.78983
G1 X103.973 Y92.757 E10.81469
G1 X104.609 Y92.362 E10.83959
G1 X105.283 Y92.038 E10.86447
G1 X105.988 Y91.788 E10.88935
G1 X106.716 Y91.614 E10.91424
G1 X107.458 Y91.519 E10.93912
G1 X107.975 Y91.5 E10.95633
G1 X127.025 Y91.501 E11.58993
G1 X127.772 Y91.541 E11.61481
G1 X128.511 Y91.661 E11.63972
G1 X129.232 Y91.858 E11.66458
G1 X129.929 Y92.132 E11.68948
G1 X130.592 Y92.478 E11.71436
G1 X131.214 Y92.893 E11.73923
G1 X131.789 Y93.372 E11.76412
G1 X132.309 Y93.91 E11.78901
G1 X132.769 Y94.5 E11.81389
G1 X133.163 Y95.135 E11.83874
G1 X133.487 Y95.81 E11.86365
G1 X133.737 Y96.515 E11.88853
G1 X133.911 Y97.242 E11.91339
G1 X134.006 Y97.984 E11.93827
G1 X134.025 Y98.501 E11.95548
G1 X134.025 Y136.5 E13.21933
G1 X133.985 Y137.247 E13.24421
G1 X133.866 Y137.985 E13.26907
G1 X133.668 Y138.707 E13.29397
G1 X133.395 Y139.403 E13.31884
G1 X133.048 Y140.066 E13.34373
G1 X132.633 Y140.689 E13.36863
G1 X132.154 Y141.263 E13.39349
G1 X131.617 Y141.784 E13.41838
G1 X131.027 Y142.243 E13.44324
G1 X130.391 Y142.638 E13.46814
G1 X129.717 Y142.962 E13.49301
G1 X129.012 Y143.212 E13.51789
G1 X128.284 Y143.386 E13.54279
G1 X127.542 Y143.481 E13.56767
G1 X127.025 Y143.5 E13.58487
G1 X107.975 Y143.499 E14.21848
G1 X107.228 Y143.459 E14.24336
G1 X106.489 Y143.339 E14.26826
G1 X105.768 Y143.142 E14.29312
G1 X105.071 Y142.868 E14.31803
G1 X104.408 Y142.522 E14.34291
G1 X103.786 Y142.107 E14.36777
G1 X103.211 Y141.628 E14.39267
G1 X102.691 Y141.09 E14.41755
G1 X102.231 Y140.5 E14.44244
G1 X101.837 Y139.865 E14.46729
G1 X101.513 Y139.19 E14.49219
G1 X101.263 Y138.485 E14.51707
G1 X101.089 Y137.758 E14.54194
G1 X100.994 Y137.016 E14.56682
G1 X100.975 Y136.499 E14.58402
G1 X100.975 Y98.5 E15.84787
G1 X101.015 Y97.753 E15.87276
G1 X101.134 Y97.015 E15.89762
G1 X101.332 Y96.293 E15.92252
G1 X101.605 Y95.597 E15.94739
G1 X101.952 Y94.934 E15.97227
G1 X102.367 Y94.311 E15.99717
G1 X102.846 Y93.737 E16.02204
G0 F6000 X102.764 Y94.45
G1 F1200 X103.24 Y93.902 E16.04618
G1 X103.774 Y93.409 E16.07035
G1 X104.359 Y92.979 E16.0945
G1 X104.988 Y92.615 E16.11867
G1 X105.653 Y92.322 E16.14284
G1 X106.346 Y92.104 E16.167
G1 X107.058 Y91.964 E16.19114
G1 X107.975 Y91.9 E16.22171
G1 X127.025 Y91.901 E16.85532
G1 X127.751 Y91.941 E16.8795
G1 X128.467 Y92.06 E16.90364
G1 X129.166 Y92.258 E16.92781
G1 X129.839 Y92.531 E16.95196
G1 X130.478 Y92.876 E16.97611
G1 X131.075 Y93.29 E17.00028
G1 X131.623 Y93.767 E17.02444
G1 X132.116 Y94.301 E17.04862
G1 X132.547 Y94.885 E17.07276
G1 X132.91 Y95.514 E17.09691
G1 X133.203 Y96.179 E17.12108
G1 X133.421 Y96.872 E17.14524
G1 X133.561 Y97.585 E17.16941
G1 X133.625 Y98.501 E17.19995
G1 X133.625 Y136.5 E18.4638
G1 X133.585 Y137.225 E18.48795
G1 X133.466 Y137.942 E18.51213
G1 X133.268 Y138.641 E18.53629
G1 X132.995 Y139.314 E18.56045
G1 X132.65 Y139.953 E18.5846
G1 X132.236 Y140.55 E18.60876
G1 X131.76 Y141.098 E18.63291
G1 X131.226 Y141.591 E18.65708
G1 X130.641 Y142.021 E18.68123
G1 X130.012 Y142.385 E18.7054
G1 X129.347 Y142.678 E18.72957
G1 X128.654 Y142.896 E18.75373
G1 X127.942 Y143.036 E18.77786
G1 X127.025 Y143.1 E18.80844
G1 X107.975 Y143.099 E19.44204
G1 X107.249 Y143.059 E19.46623
G1 X106.533 Y142.94 E19.49037
G1 X105.834 Y142.742 E19.51453
G1 X105.161 Y142.469 E19.53869
G1 X104.522 Y142.124 E19.56284
G1 X103.925 Y141.71 E19.587
G1 X103.377 Y141.233 E19.61117
G1 X102.884 Y140.699 E19.63534
G1 X102.453 Y140.115 E19.65948
G1 X102.09 Y139.486 E19.68364
G1 X101.797 Y138.821 E19.70781
G1 X101.579 Y138.128 E19.73197
G1 X101.439 Y137.415 E19.75614
G1 X101.375 Y136.499 E19.78668
G1 X101.375 Y98.5 E21.05053
G1 X101.415 Y97.775 E21.07468
G1 X101.534 Y97.058 E21.09885
G1 X101.732 Y96.359 E21.12302
G1 X102.005 Y95.686 E21.14717
G1 X102.35 Y95.047 E21.17132
G1 X102.764 Y94.45 E21.19549
G0 F6000 X103.16 Y94.594
G1 F1200 X103.634 Y94.073 E21.21891
G1 X104.164 Y93.609 E21.24234
G1 X104.743 Y93.209 E21.26575
G1 X105.364 Y92.877 E21.28917
G1 X106.018 Y92.617 E21.31258
G1 X106.698 Y92.433 E21.33601
G1 X107.394 Y92.327 E21.35943
G1 X107.975 Y92.3 E21.37877
G1 X127.025 Y92.301 E22.01238
G1 X127.728 Y92.341 E22.0358
G1 X128.422 Y92.46 E22.05922
G1 X129.098 Y92.658 E22.08264
G1 X129.747 Y92.93 E22.10605
G1 X130.361 Y93.275 E22.12947
G1 X130.932 Y93.687 E22.15289
G1 X131.452 Y94.161 E22.17629
G1 X131.916 Y94.69 E22.1997
G1 X132.316 Y95.269 E22.2231
G1 X132.648 Y95.89 E22.24653
G1 X132.908 Y96.544 E22.26993
G1 X133.092 Y97.224 E22.29336
G1 X133.198 Y97.92 E22.31678
G1 X133.225 Y98.501 E22.33613
G1 X133.225 Y136.5 E23.59998
G1 X133.185 Y137.203 E23.6234
G1 X133.066 Y137.897 E23.64682
G1 X132.868 Y138.572 E23.67021
G1 X132.596 Y139.221 E23.69362
G1 X132.251 Y139.835 E23.71704
G1 X131.84 Y140.406 E23.74044
G1 X131.366 Y140.927 E23.76387
G1 X130.836 Y141.391 E23.7873
G1 X130.257 Y141.791 E23.8107
G1 X129.636 Y142.123 E23.83412
G1 X128.982 Y142.383 E23.85753
G1 X128.302 Y142.567 E23.88096
G1 X127.606 Y142.673 E23.90438
G1 X127.025 Y142.7 E23.92372
G1 X107.975 Y142.699 E24.55733
G1 X107.272 Y142.659 E24.58075
G1 X106.578 Y142.54 E24.60417
G1 X105.902 Y142.342 E24.6276
G1 X105.253 Y142.07 E24.651
G1 X104.639 Y141.725 E24.67443
G1 X104.068 Y141.313 E24.69785
G1 X103.548 Y140.839 E24.72125
G1 X103.084 Y140.31 E24.74465
G1 X102.684 Y139.731 E24.76806
G1 X102.352 Y139.11 E24.79148
G1 X102.092 Y138.456 E24.81489
G1 X101.908 Y137.776 E24.83832
G1 X101.802 Y137.08 E24.86173
G1 X101.775 Y136.499 E24.88108
G1 X101.775 Y98.5 E26.14493
G1 X101.815 Y97.797 E26.16835
G1 X101.934 Y97.103 E26.19177
G1 X102.132 Y96.428 E26.21517
G1 X102.404 Y95.779 E26.23857
G1 X102.749 Y95.165 E26.262
G1 X103.16 Y94.594 E26.2854
G0 F6000 X103.557 Y94.742
G1 F1200 X104.028 Y94.251 E26.30803
G1 X104.553 Y93.817 E26.33068
G1 X105.125 Y93.448 E26.35332
G1 X105.737 Y93.149 E26.37598
G1 X106.379 Y92.924 E26.3986
G1 X107.044 Y92.775 E26.42127
G1 X107.975 Y92.7 E26.45233
G1 X127.025 Y92.701 E27.08594
G1 X127.705 Y92.741 E27.1086
G1 X128.375 Y92.86 E27.13123
G1 X129.027 Y93.057 E27.15388
G1 X129.651 Y93.33 E27.17654
G1 X130.239 Y93.673 E27.19918
G1 X130.783 Y94.083 E27.22183
G1 X131.275 Y94.554 E27.24449
G1 X131.708 Y95.079 E27.26712
G1 X132.077 Y95.651 E27.28976
G1 X132.376 Y96.263 E27.31242
G1 X132.601 Y96.906 E27.33507
G1 X132.75 Y97.57 E27.35771
G1 X132.825 Y98.501 E27.38877
G1 X132.825 Y136.5 E28.65263
G1 X132.785 Y137.18 E28.67528
G1 X132.666 Y137.85 E28.69791
G1 X132.469 Y138.502 E28.72057
G1 X132.197 Y139.126 E28.74321
G1 X131.853 Y139.714 E28.76587
G1 X131.443 Y140.258 E28.78852
G1 X130.972 Y140.749 E28.81115
G1 X130.447 Y141.183 E28.83381
G1 X129.875 Y141.552 E28.85645
G1 X129.263 Y141.851 E28.8791
G1 X128.621 Y142.076 E28.90173
G1 X127.956 Y142.225 E28.9244
G1 X127.025 Y142.3 E28.95546
G1 X107.975 Y142.299 E29.58907
G1 X107.295 Y142.259 E29.61172
G1 X106.625 Y142.14 E29.63436
G1 X105.973 Y141.943 E29.65701
G1 X105.349 Y141.67 E29.67966
G1 X104.761 Y141.327 E29.70231
G1 X104.217 Y140.917 E29.72496
G1 X103.725 Y140.446 E29.74762
G1 X103.292 Y139.921 E29.77025
G1 X102.923 Y139.349 E29.79289
G1 X102.624 Y138.737 E29.81554
G1 X102.399 Y138.094 E29.8382
G1 X102.25 Y137.43 E29.86084
G1 X102.175 Y136.499 E29.8919
G1 X102.175 Y98.5 E31.15575
G1 X102.215 Y97.82 E31.17841
G1 X102.334 Y97.15 E31.20104
G1 X102.531 Y96.498 E31.2237
G1 X102.803 Y95.874 E31.24634
G1 X103.147 Y95.286 E31.269
G1 X103.557 Y94.742 E31.29165
G0 F6000 X103.953 Y94.897
G1 F1200 X104.42 Y94.435 E31.3135
G1 X104.94 Y94.034 E31.33534
G1 X105.504 Y93.698 E31.35718
G1 X106.106 Y93.434 E31.37904
G1 X106.735 Y93.244 E31.40089
G1 X107.382 Y93.133 E31.42273
G1 X107.975 Y93.1 E31.44248
G1 X127.025 Y93.101 E32.07609
G1 X127.681 Y93.141 E32.09795
G1 X128.327 Y93.26 E32.11979
G1 X128.954 Y93.457 E32.14165
G1 X129.552 Y93.729 E32.1635
G1 X130.113 Y94.071 E32.18536
G1 X130.628 Y94.479 E32.20721
G1 X131.09 Y94.946 E32.22906
G1 X131.491 Y95.466 E32.2509
G1 X131.827 Y96.031 E32.27276
G1 X132.091 Y96.632 E32.2946
G1 X132.281 Y97.261 E32.31645
G1 X132.392 Y97.909 E32.33832
G1 X132.425 Y98.501 E32.35804
G1 X132.425 Y136.5 E33.62189
G1 X132.385 Y137.156 E33.64375
G1 X132.266 Y137.802 E33.6656
G1 X132.069 Y138.429 E33.68745
G1 X131.797 Y139.027 E33.70931
G1 X131.455 Y139.588 E33.73116
G1 X131.047 Y140.103 E33.75301
G1 X130.58 Y140.565 E33.77486
G1 X130.06 Y140.966 E33.7967
G1 X129.496 Y141.302 E33.81854
G1 X128.894 Y141.566 E33.8404
G1 X128.265 Y141.756 E33.86225
G1 X127.618 Y141.867 E33.88409
G1 X127.025 Y141.9 E33.90384
G1 X107.975 Y141.899 E34.53745
G1 X107.319 Y141.859 E34.55931
G1 X106.673 Y141.74 E34.58115
G1 X106.046 Y141.543 E34.60301
G1 X105.448 Y141.271 E34.62486
G1 X104.887 Y140.929 E34.64672
G1 X104.372 Y140.521 E34.66857
G1 X103.91 Y140.054 E34.69042
G1 X103.509 Y139.534 E34.71226
G1 X103.173 Y138.969 E34.73412
G1 X102.909 Y138.368 E34.75595
G1 X102.719 Y137.739 E34.77781
G1 X102.608 Y137.091 E34.79968
G1 X102.575 Y136.499 E34.8194
G1 X102.575 Y98.5 E36.08325
G1 X102.615 Y97.844 E36.10511
G1 X102.734 Y97.198 E36.12695
G1 X102.931 Y96.571 E36.14881
G1 X103.203 Y95.973 E36.17066
G1 X103.545 Y95.412 E36.19252
G1 X103.953 Y94.897 E36.21437
G0 F6000 X104.348 Y95.059
G1 F1200 X104.811 Y94.629 E36.23539
G1 X105.325 Y94.26 E36.25643
G1 X105.881 Y93.96 E36.27744
G1 X106.47 Y93.732 E36.29845
G1 X107.084 Y93.58 E36.31949
G1 X107.975 Y93.5 E36.34924
G1 X127.025 Y93.501 E36.98285
G1 X127.656 Y93.541 E37.00388
G1 X128.277 Y93.66 E37.02491
G1 X128.878 Y93.857 E37.04594
G1 X129.449 Y94.128 E37.06697
G1 X129.981 Y94.469 E37.08798
G1 X130.466 Y94.874 E37.109
G1 X130.897 Y95.337 E37.13004
G1 X131.265 Y95.851 E37.15106
G1 X131.565 Y96.407 E37.17208
G1 X131.793 Y96.997 E37.19311
G1 X131.945 Y97.61 E37.21412
G1 X132.025 Y98.501 E37.24387
G1 X132.025 Y136.5 E38.50773
G1 X131.985 Y137.131 E38.52876
G1 X131.866 Y137.752 E38.54979
G1 X131.669 Y138.352 E38.57079
G1 X131.398 Y138.924 E38.59184
G1 X131.058 Y139.456 E38.61284
G1 X130.652 Y139.941 E38.63388
G1 X130.189 Y140.371 E38.65489
G1 X129.675 Y140.74 E38.67594
G1 X129.119 Y141.04 E38.69695
G1 X128.53 Y141.268 E38.71796
G1 X127.916 Y141.42 E38.739
G1 X127.025 Y141.5 E38.76875
G1 X107.975 Y141.499 E39.40236
G1 X107.344 Y141.459 E39.42339
G1 X106.723 Y141.34 E39.44442
G1 X106.122 Y141.143 E39.46545
G1 X105.551 Y140.872 E39.48647
G1 X105.019 Y140.531 E39.50749
G1 X104.534 Y140.126 E39.52851
G1 X104.103 Y139.663 E39.54955
G1 X103.735 Y139.149 E39.57057
G1 X103.435 Y138.593 E39.59158
G1 X103.207 Y138.003 E39.61262
G1 X103.055 Y137.39 E39.63363
G1 X102.975 Y136.499 E39.66338
G1 X102.975 Y98.5 E40.92723
G1 X103.015 Y97.869 E40.94826
G1 X103.134 Y97.248 E40.96929
G1 X103.331 Y96.648 E40.9903
G1 X103.602 Y96.076 E41.01135
G1 X103.942 Y95.544 E41.03235
G1 X104.348 Y95.059 E41.05339
G0 F6000 X104.34 Y95.681
G1 F1200 X104.742 Y95.228 E41.07353
G1 X105.2 Y94.831 E41.09369
G1 X105.707 Y94.498 E41.11386
G1 X106.253 Y94.234 E41.13404
G1 X106.829 Y94.045 E41.1542
G1 X107.425 Y93.933 E41.17437
G1 X107.975 Y93.9 E41.19269
G1 X127.025 Y93.901 E41.8263
G1 X127.63 Y93.941 E41.84647
G1 X128.225 Y94.06 E41.86665
G1 X128.798 Y94.257 E41.8868
G1 X129.341 Y94.527 E41.90697
G1 X129.844 Y94.866 E41.92715
G1 X130.297 Y95.268 E41.94729
G1 X130.694 Y95.727 E41.96747
G1 X131.027 Y96.233 E41.98762
G1 X131.291 Y96.779 E42.00779
G1 X131.48 Y97.355 E42.02796
