;FLAVOR:Marlin
;TIME:23198
;Filament used: 16.2811m
;Layer height: 0.2
;MINX:37.636
;MINY:66.836
;MINZ:0.24
;MAXX:197.364
;MAXY:168.164
;MAXZ:18.09
;Generated with Cura_SteamEngine 4.10.0
M140 S50
M105
M190 S50
M104 S200
M105
M109 S200
M82 ;absolute extrusion mode
; Ender 3 Custom Start G-code
G92 E0 ; Reset Extruder
G28 ; Home all axes
G1 Z2.0 F3000 ; Move Z Axis up little to prevent scratching of Heat Bed
G1 X0.1 Y20 Z0.3 F5000.0 ; Move to start position
G1 X0.1 Y200.0 Z0.3 F1500.0 E15 ; Draw the first line
G1 X0.4 Y200.0 Z0.3 F5000.0 ; Move to side a little
G1 X0.4 Y20 Z0.3 F1500.0 E30 ; Draw the second line
G92 E0 ; Reset Extruder
G1 Z2.0 F3000 ; Move Z Axis up little to prevent scratching of Heat Bed
G1 X5 Y20 Z0.3 F5000.0 ; Move over to prevent blob squish
G92 E0
G92 E0
G1 F2700 E-5
;LAYER_COUNT:85
;LAYER:-6
M107
G0 F9000 X45.676 Y74.543 Z0.24
;TYPE:SUPPORT-INTERFACE
G1 F2700 E0
G1 F1125 X46.432 Y74.1 E0.06994
G1 X46.574 Y74.023 E0.08284
G1 X47.392 Y73.621 E0.15559
G1 X47.536 Y73.557 E0.16817
G1 X47.998 Y73.37 E0.20796
G1 X48.602 Y73.08 E0.26144
G1 X49.177 Y72.708 E0.31611
G1 X49.404 Y72.513 E0.34
G1 X49.422 Y72.531 E0.34203
G1 X49.812 Y72.158 E0.38511
G1 X50.508 Y71.512 E0.46091
G1 X50.647 Y71.393 E0.47551
G1 X51.338 Y70.839 E0.54621
G1 X51.477 Y70.735 E0.56007
G1 X52.192 Y70.243 E0.62935
G1 X52.376 Y70.126 E0.64676
G1 X53.132 Y69.683 E0.7167
G1 X53.274 Y69.606 E0.72959
G1 X54.106 Y69.197 E0.8036
G1 X54.219 Y69.147 E0.81346
G1 X55.069 Y68.804 E0.88663
G1 X55.242 Y68.742 E0.9013
G1 X56.08 Y68.473 E0.97155
G1 X56.244 Y68.427 E0.98515
G1 X57.116 Y68.215 E1.05678
G1 X57.278 Y68.182 E1.06998
G1 X58.171 Y68.034 E1.14224
G1 X58.348 Y68.011 E1.15648
G1 X59.242 Y67.928 E1.22815
G1 X59.384 Y67.921 E1.2395
G1 X60.125 Y67.9 E1.29868
G1 X174.886 Y67.901 E10.4594
G1 X175.887 Y67.937 E10.53935
G1 X176.01 Y67.946 E10.5492
G1 X176.927 Y68.048 E10.62285
G1 X177.102 Y68.073 E10.63696
G1 X177.991 Y68.237 E10.70912
G1 X178.114 Y68.265 E10.71919
G1 X179.008 Y68.499 E10.79296
G1 X179.171 Y68.548 E10.80654
G1 X180.013 Y68.834 E10.87753
G1 X180.179 Y68.898 E10.89173
G1 X180.982 Y69.239 E10.96137
G1 X181.171 Y69.327 E10.97801
G1 X181.965 Y69.735 E11.04927
G1 X182.082 Y69.802 E11.06003
G1 X182.861 Y70.276 E11.13282
G1 X183.012 Y70.376 E11.14728
G1 X183.726 Y70.887 E11.21736
G1 X183.874 Y71 E11.23223
G1 X184.566 Y71.577 E11.30415
G1 X184.674 Y71.673 E11.31568
G1 X185.218 Y72.187 E11.37543
G1 X185.339 Y72.309 E11.38914
G1 X185.68 Y72.677 E11.42919
G1 X186.167 Y73.139 E11.48277
G1 X186.72 Y73.546 E11.53758
G1 X187.504 Y73.96 E11.60836
G1 X187.842 Y74.109 E11.63784
G1 X188.65 Y74.525 E11.71039
G1 X188.788 Y74.601 E11.72296
G1 X189.568 Y75.076 E11.79586
G1 X189.695 Y75.161 E11.80806
G1 X190.433 Y75.688 E11.88045
G1 X190.576 Y75.798 E11.89485
G1 X191.26 Y76.369 E11.96597
G1 X191.382 Y76.477 E11.97898
G1 X191.925 Y76.99 E12.03861
G1 X192.042 Y77.108 E12.05187
G1 X192.688 Y77.804 E12.12767
G1 X192.807 Y77.943 E12.14228
G1 X193.351 Y78.621 E12.21167
G1 X193.473 Y78.785 E12.22799
G1 X193.957 Y79.488 E12.29612
G1 X194.074 Y79.672 E12.31352
G1 X194.517 Y80.428 E12.38347
G1 X194.594 Y80.57 E12.39636
G1 X194.997 Y81.389 E12.46922
G1 X195.053 Y81.515 E12.48023
G1 X195.395 Y82.36 E12.553
G1 X195.454 Y82.525 E12.56698
G1 X195.726 Y83.372 E12.638
G1 X195.772 Y83.534 E12.65144
G1 X195.984 Y84.408 E12.72323
G1 X196.017 Y84.566 E12.73611
G1 X196.165 Y85.458 E12.80829
G1 X196.189 Y85.644 E12.82326
G1 X196.271 Y86.528 E12.89413
G1 X196.279 Y86.68 E12.90628
G1 X196.3 Y87.413 E12.96481
G1 X196.3 Y97.557 E13.77455
G1 X196.264 Y98.563 E13.85491
G1 X196.254 Y98.698 E13.86571
G1 X196.152 Y99.615 E13.93936
G1 X196.128 Y99.786 E13.95315
G1 X195.965 Y100.668 E14.02474
G1 X195.935 Y100.802 E14.0357
G1 X195.704 Y101.687 E14.10871
G1 X195.652 Y101.859 E14.12306
G1 X195.366 Y102.701 E14.19404
G1 X195.302 Y102.867 E14.20824
G1 X194.961 Y103.67 E14.27788
G1 X194.88 Y103.845 E14.29328
G1 X194.465 Y104.653 E14.36578
G1 X194.398 Y104.77 E14.37655
G1 X193.924 Y105.549 E14.44934
G1 X193.824 Y105.7 E14.46379
G1 X193.313 Y106.414 E14.53388
G1 X193.2 Y106.562 E14.54874
G1 X192.623 Y107.254 E14.62067
G1 X192.528 Y107.361 E14.63209
G1 X192.045 Y107.874 E14.68833
G1 X191.877 Y108.041 E14.70724
G1 X191.319 Y108.558 E14.76796
G1 X190.858 Y109.044 E14.82143
G1 X190.454 Y109.594 E14.87591
G1 X190.122 Y110.191 E14.93044
G1 X189.868 Y110.825 E14.98496
G1 X189.697 Y111.486 E15.03946
G1 X189.611 Y112.157 E15.09346
G1 X189.6 Y112.503 E15.12109
G1 X189.6 Y122.481 E15.91758
G1 X189.642 Y123.149 E15.97101
G1 X189.771 Y123.82 E16.02555
G1 X189.984 Y124.469 E16.08007
G1 X190.276 Y125.086 E16.13456
G1 X190.644 Y125.661 E16.18906
G1 X191.024 Y126.116 E16.23638
G1 X191.012 Y126.128 E16.23773
G1 X191.882 Y126.948 E16.33316
G1 X192.042 Y127.109 E16.35128
G1 X192.688 Y127.805 E16.42708
G1 X192.807 Y127.944 E16.44169
G1 X193.35 Y128.621 E16.51097
G1 X193.473 Y128.786 E16.52739
G1 X193.957 Y129.489 E16.59552
G1 X194.074 Y129.673 E16.61293
G1 X194.517 Y130.429 E16.68287
G1 X194.594 Y130.571 E16.69577
G1 X194.997 Y131.39 E16.76863
G1 X195.053 Y131.516 E16.77964
G1 X195.395 Y132.361 E16.8524
G1 X195.454 Y132.526 E16.86639
G1 X195.726 Y133.373 E16.9374
G1 X195.772 Y133.535 E16.95085
G1 X195.984 Y134.409 E17.02264
G1 X196.017 Y134.567 E17.03552
G1 X196.165 Y135.459 E17.1077
G1 X196.189 Y135.645 E17.12267
G1 X196.271 Y136.529 E17.19354
G1 X196.279 Y136.681 E17.20569
G1 X196.3 Y137.414 E17.26422
G1 X196.3 Y147.557 E18.07388
G1 X196.264 Y148.563 E18.15423
G1 X196.254 Y148.698 E18.16504
G1 X196.152 Y149.615 E18.23869
G1 X196.128 Y149.786 E18.25247
G1 X195.965 Y150.668 E18.32407
G1 X195.935 Y150.802 E18.33503
G1 X195.704 Y151.687 E18.40804
G1 X195.652 Y151.859 E18.42239
G1 X195.366 Y152.701 E18.49337
G1 X195.302 Y152.867 E18.50757
G1 X194.961 Y153.67 E18.57721
G1 X194.88 Y153.845 E18.5926
G1 X194.465 Y154.653 E18.66511
G1 X194.398 Y154.77 E18.67587
G1 X193.924 Y155.549 E18.74866
G1 X193.824 Y155.7 E18.76312
G1 X193.313 Y156.414 E18.83321
G1 X193.2 Y156.562 E18.84807
G1 X192.623 Y157.254 E18.91999
G1 X192.528 Y157.361 E18.93142
G1 X192.045 Y157.874 E18.98766
G1 X191.874 Y158.044 E19.00691
G1 X191.178 Y158.69 E19.08271
G1 X191.039 Y158.809 E19.09731
G1 X190.348 Y159.363 E19.16801
G1 X190.209 Y159.467 E19.18187
G1 X189.494 Y159.959 E19.25115
G1 X189.31 Y160.076 E19.26856
G1 X188.554 Y160.519 E19.3385
G1 X188.412 Y160.596 E19.35139
G1 X187.598 Y160.997 E19.42383
G1 X187.428 Y161.072 E19.43866
G1 X186.835 Y161.384 E19.49215
G1 X186.275 Y161.777 E19.54676
G1 X185.733 Y162.274 E19.60546
G1 X185.345 Y162.686 E19.65064
G1 X185.188 Y162.842 E19.6683
G1 X184.503 Y163.478 E19.74292
G1 X184.355 Y163.605 E19.75848
G1 X183.662 Y164.161 E19.82941
G1 X183.523 Y164.265 E19.84326
G1 X182.808 Y164.757 E19.91255
G1 X182.624 Y164.874 E19.92995
G1 X181.868 Y165.317 E19.9999
G1 X181.726 Y165.394 E20.01279
G1 X180.898 Y165.801 E20.08644
G1 X180.781 Y165.853 E20.09666
G1 X179.926 Y166.198 E20.17025
G1 X179.763 Y166.256 E20.18406
G1 X178.92 Y166.527 E20.25475
G1 X178.756 Y166.573 E20.26834
G1 X177.884 Y166.785 E20.33998
G1 X177.722 Y166.818 E20.35318
G1 X176.829 Y166.966 E20.42543
G1 X176.652 Y166.989 E20.43968
G1 X175.758 Y167.072 E20.51135
G1 X175.616 Y167.079 E20.5227
G1 X174.875 Y167.1 E20.58187
G1 X60.114 Y167.099 E29.74259
G1 X59.113 Y167.063 E29.82255
G1 X58.99 Y167.054 E29.83239
G1 X58.073 Y166.952 E29.90604
G1 X57.898 Y166.927 E29.92015
G1 X57.009 Y166.763 E29.99231
G1 X56.886 Y166.735 E30.00238
G1 X55.992 Y166.501 E30.07615
G1 X55.829 Y166.452 E30.08974
G1 X54.987 Y166.166 E30.16072
G1 X54.821 Y166.102 E30.17492
G1 X54.018 Y165.761 E30.24456
G1 X53.829 Y165.673 E30.2612
G1 X53.035 Y165.265 E30.33246
G1 X52.918 Y165.198 E30.34322
G1 X52.139 Y164.724 E30.41601
G1 X51.988 Y164.624 E30.43047
G1 X51.274 Y164.113 E30.50056
G1 X51.126 Y164 E30.51542
G1 X50.434 Y163.423 E30.58734
G1 X50.326 Y163.327 E30.59888
G1 X49.814 Y162.845 E30.65501
G1 X49.432 Y162.477 E30.69735
G1 X49.275 Y162.368 E30.71261
G1 X48.71 Y161.985 E30.76709
G1 X48.092 Y161.673 E30.82235
G1 X47.308 Y161.34 E30.89035
G1 X47.143 Y161.263 E30.90488
G1 X46.335 Y160.848 E30.97739
G1 X46.218 Y160.781 E30.98815
G1 X45.439 Y160.307 E31.06094
G1 X45.288 Y160.207 E31.0754
G1 X44.574 Y159.696 E31.14549
G1 X44.426 Y159.583 E31.16035
G1 X43.734 Y159.006 E31.23227
G1 X43.626 Y158.91 E31.24381
G1 X43.114 Y158.428 E31.29994
G1 X42.954 Y158.267 E31.31806
G1 X42.31 Y157.573 E31.39363
G1 X42.187 Y157.429 E31.40875
G1 X41.639 Y156.745 E31.47871
G1 X41.535 Y156.606 E31.49257
G1 X41.043 Y155.891 E31.56185
G1 X40.926 Y155.707 E31.57926
G1 X40.483 Y154.951 E31.6492
G1 X40.406 Y154.809 E31.66209
G1 X39.997 Y153.977 E31.7361
G1 X39.945 Y153.859 E31.74639
G1 X39.599 Y153.003 E31.82009
G1 X39.542 Y152.842 E31.83373
G1 X39.27 Y151.994 E31.90481
G1 X39.224 Y151.83 E31.91841
G1 X39.013 Y150.958 E31.99003
G1 X38.98 Y150.797 E32.00315
G1 X38.833 Y149.907 E32.07515
G1 X38.811 Y149.735 E32.08899
G1 X38.728 Y148.836 E32.16106
G1 X38.721 Y148.698 E32.17209
G1 X38.7 Y147.966 E32.23055
G1 X38.7 Y137.048 E33.10207
G1 X38.736 Y136.042 E33.18242
G1 X38.746 Y135.907 E33.19323
G1 X38.848 Y134.99 E33.26688
G1 X38.873 Y134.815 E33.28099
G1 X39.035 Y133.937 E33.35226
G1 X39.065 Y133.803 E33.36322
G1 X39.296 Y132.918 E33.43623
G1 X39.348 Y132.746 E33.45057
G1 X39.634 Y131.904 E33.52156
G1 X39.698 Y131.738 E33.53576
G1 X40.039 Y130.935 E33.6054
G1 X40.12 Y130.76 E33.62079
G1 X40.535 Y129.952 E33.6933
G1 X40.602 Y129.835 E33.70406
G1 X41.076 Y129.056 E33.77685
G1 X41.176 Y128.905 E33.79131
G1 X41.687 Y128.191 E33.8614
G1 X41.8 Y128.043 E33.87626
G1 X42.377 Y127.351 E33.94818
G1 X42.473 Y127.243 E33.95972
G1 X42.955 Y126.731 E34.01585
G1 X43.109 Y126.578 E34.03318
G1 X43.681 Y126.048 E34.09542
G1 X44.142 Y125.562 E34.14889
G1 X44.546 Y125.012 E34.20337
G1 X44.878 Y124.415 E34.2579
G1 X45.132 Y123.781 E34.31242
G1 X45.303 Y123.12 E34.36692
G1 X45.389 Y122.449 E34.42092
G1 X45.4 Y122.103 E34.44855
G1 X45.4 Y112.899 E35.18325
G1 X45.358 Y112.231 E35.23668
G1 X45.229 Y111.56 E35.29122
G1 X45.016 Y110.911 E35.34575
G1 X44.724 Y110.294 E35.40024
G1 X44.356 Y109.719 E35.45473
G1 X43.926 Y109.205 E35.50823
G1 X43.93 Y109.198 E35.50887
G1 X43.114 Y108.428 E35.59843
G1 X42.954 Y108.267 E35.61655
G1 X42.31 Y107.573 E35.69212
G1 X42.187 Y107.429 E35.70724
G1 X41.639 Y106.745 E35.7772
G1 X41.535 Y106.606 E35.79106
G1 X41.043 Y105.891 E35.86034
G1 X40.926 Y105.707 E35.87775
G1 X40.483 Y104.951 E35.94769
G1 X40.406 Y104.809 E35.96058
G1 X39.997 Y103.977 E36.03459
G1 X39.945 Y103.859 E36.04488
G1 X39.599 Y103.003 E36.11858
G1 X39.542 Y102.842 E36.13222
G1 X39.27 Y101.994 E36.2033
G1 X39.224 Y101.83 E36.2169
G1 X39.013 Y100.958 E36.28852
G1 X38.98 Y100.797 E36.30164
G1 X38.833 Y99.907 E36.37364
G1 X38.811 Y99.735 E36.38748
G1 X38.728 Y98.836 E36.45955
G1 X38.721 Y98.698 E36.47058
G1 X38.7 Y97.966 E36.52904
G1 X38.7 Y87.048 E37.40056
G1 X38.736 Y86.042 E37.48091
G1 X38.746 Y85.907 E37.49172
G1 X38.848 Y84.99 E37.56537
G1 X38.873 Y84.815 E37.57948
G1 X39.035 Y83.937 E37.65075
G1 X39.065 Y83.803 E37.66171
G1 X39.296 Y82.918 E37.73472
G1 X39.348 Y82.746 E37.74906
G1 X39.634 Y81.904 E37.82005
G1 X39.698 Y81.738 E37.83425
G1 X40.039 Y80.935 E37.90389
G1 X40.12 Y80.76 E37.91928
G1 X40.535 Y79.952 E37.99179
G1 X40.602 Y79.835 E38.00255
G1 X41.076 Y79.056 E38.07534
G1 X41.176 Y78.905 E38.0898
G1 X41.687 Y78.191 E38.15989
G1 X41.8 Y78.043 E38.17475
G1 X42.377 Y77.351 E38.24667
G1 X42.473 Y77.243 E38.25821
G1 X42.955 Y76.731 E38.31434
G1 X43.112 Y76.575 E38.332
G1 X43.808 Y75.929 E38.40781
G1 X43.947 Y75.81 E38.42241
G1 X44.638 Y75.256 E38.49311
G1 X44.777 Y75.152 E38.50697
G1 X45.492 Y74.66 E38.57625
G1 X45.676 Y74.543 E38.59365
G0 F9000 X46.4 Y74.118
G1 F1125 X46.4 Y160.881 E45.51945
G0 F9000 X48 Y161.633
G1 F1125 X48 Y73.369 E52.56507
G0 F9000 X49.6 Y72.36
G1 F1125 X49.6 Y162.638 E59.77145
G0 F9000 X51.2 Y164.056
G1 F1125 X51.2 Y70.949 E67.20365
G0 F9000 X52.8 Y69.877
G1 F1125 X52.8 Y165.126 E74.80684
G0 F9000 X54.4 Y165.923
G1 F1125 X54.4 Y69.073 E82.53782
G0 F9000 X56 Y68.498
G1 F1125 X56 Y166.503 E90.361
G0 F9000 X57.6 Y166.872
G1 F1125 X57.6 Y68.128 E98.24318
G0 F9000 X59.2 Y67.931
G1 F1125 X59.2 Y167.066 E106.15656
G0 F9000 X60.8 Y167.099
G1 F1125 X60.8 Y67.901 E114.07498
G0 F9000 X62.4 Y67.901
G1 F1125 X62.4 Y167.099 E121.99339
G0 F9000 X64 Y167.099
G1 F1125 X64 Y67.901 E129.9118
G0 F9000 X65.6 Y67.901
G1 F1125 X65.6 Y167.099 E137.83022
G0 F9000 X67.2 Y167.099
G1 F1125 X67.2 Y67.901 E145.74863
G0 F9000 X68.8 Y67.901
G1 F1125 X68.8 Y167.099 E153.66704
G0 F9000 X70.4 Y167.099
G1 F1125 X70.4 Y67.901 E161.58546
G0 F9000 X72 Y67.901
G1 F1125 X72 Y167.099 E169.50387
G0 F9000 X73.6 Y167.099
G1 F1125 X73.6 Y67.901 E177.42228
G0 F9000 X75.2 Y67.901
G1 F1125 X75.2 Y167.099 E185.3407
G0 F9000 X76.8 Y167.099
G1 F1125 X76.8 Y67.901 E193.25911
G0 F9000 X78.4 Y67.901
G1 F1125 X78.4 Y167.099 E201.17752
G0 F9000 X80 Y167.099
G1 F1125 X80 Y67.901 E209.09593
G0 F9000 X81.6 Y67.901
G1 F1125 X81.6 Y167.099 E217.01435
G0 F9000 X83.2 Y167.099
G1 F1125 X83.2 Y67.901 E224.93276
G0 F9000 X84.8 Y67.901
G1 F1125 X84.8 Y167.099 E232.85117
G0 F9000 X86.4 Y167.099
G1 F1125 X86.4 Y67.901 E240.76959
G0 F9000 X88 Y67.901
G1 F1125 X88 Y167.099 E248.688
G0 F9000 X89.6 Y167.099
G1 F1125 X89.6 Y67.901 E256.60641
G0 F9000 X91.2 Y67.901
G1 F1125 X91.2 Y167.099 E264.52483
G0 F9000 X92.8 Y167.099
G1 F1125 X92.8 Y67.901 E272.44324
G0 F9000 X94.4 Y67.901
G1 F1125 X94.4 Y167.099 E280.36165
G0 F9000 X96 Y167.099
G1 F1125 X96 Y67.901 E288.28007
G0 F9000 X97.6 Y67.901
G1 F1125 X97.6 Y167.099 E296.19848
G0 F9000 X99.2 Y167.099
G1 F1125 X99.2 Y67.901 E304.11689
G0 F9000 X100.8 Y67.901
G1 F1125 X100.8 Y167.099 E312.03531
G0 F9000 X102.4 Y167.099
G1 F1125 X102.4 Y67.901 E319.95372
G0 F9000 X104 Y67.901
G1 F1125 X104 Y167.099 E327.87213
G0 F9000 X105.6 Y167.099
G1 F1125 X105.6 Y67.901 E335.79055
G0 F9000 X107.2 Y67.901
G1 F1125 X107.2 Y167.099 E343.70896
G0 F9000 X108.8 Y167.099
G1 F1125 X108.8 Y67.901 E351.62737
G0 F9000 X110.4 Y67.901
G1 F1125 X110.4 Y167.099 E359.54579
G0 F9000 X112 Y167.099
G1 F1125 X112 Y67.901 E367.4642
G0 F9000 X113.6 Y67.901
G1 F1125 X113.6 Y167.099 E375.38261
G0 F9000 X115.2 Y167.099
G1 F1125 X115.2 Y67.901 E383.30103
G0 F9000 X116.8 Y67.901
G1 F1125 X116.8 Y167.099 E391.21944
G0 F9000 X118.4 Y167.099
G1 F1125 X118.4 Y67.901 E399.13785
G0 F9000 X120 Y67.901
G1 F1125 X120 Y167.099 E407.05627
G0 F9000 X121.6 Y167.099
G1 F1125 X121.6 Y67.901 E414.97468
G0 F9000 X123.2 Y67.901
G1 F1125 X123.2 Y167.099 E422.89309
G0 F9000 X124.8 Y167.099
G1 F1125 X124.8 Y67.901 E430.81151
G0 F9000 X126.4 Y67.901
G1 F1125 X126.4 Y167.099 E438.72992
G0 F9000 X128 Y167.099
G1 F1125 X128 Y67.901 E446.64833
G0 F9000 X129.6 Y67.901
G1 F1125 X129.6 Y167.099 E454.56675
G0 F9000 X131.2 Y167.099
G1 F1125 X131.2 Y67.901 E462.48516
G0 F9000 X132.8 Y67.901
G1 F1125 X132.8 Y167.099 E470.40357
G0 F9000 X134.4 Y167.099
G1 F1125 X134.4 Y67.901 E478.32199
G0 F9000 X136 Y67.901
G1 F1125 X136 Y167.099 E486.2404
G0 F9000 X137.6 Y167.099
G1 F1125 X137.6 Y67.901 E494.15881
G0 F9000 X139.2 Y67.901
G1 F1125 X139.2 Y167.099 E502.07723
G0 F9000 X140.8 Y167.099
G1 F1125 X140.8 Y67.901 E509.99564
G0 F9000 X142.4 Y67.901
G1 F1125 X142.4 Y167.099 E517.91405
G0 F9000 X144 Y167.099
G1 F1125 X144 Y67.901 E525.83247
G0 F9000 X145.6 Y67.901
G1 F1125 X145.6 Y167.099 E533.75088
G0 F9000 X147.2 Y167.099
G1 F1125 X147.2 Y67.901 E541.66929
G0 F9000 X148.8 Y67.901
G1 F1125 X148.8 Y167.099 E549.58771
G0 F9000 X150.4 Y167.099
G1 F1125 X150.4 Y67.901 E557.50612
G0 F9000 X152 Y67.901
G1 F1125 X152 Y167.099 E565.42453
G0 F9000 X153.6 Y167.099
G1 F1125 X153.6 Y67.901 E573.34295
G0 F9000 X155.2 Y67.901
G1 F1125 X155.2 Y167.099 E581.26136
G0 F9000 X156.8 Y167.099
G1 F1125 X156.8 Y67.901 E589.17977
G0 F9000 X158.4 Y67.901
G1 F1125 X158.4 Y167.099 E597.09819
G0 F9000 X160 Y167.099
G1 F1125 X160 Y67.901 E605.0166
G0 F9000 X161.6 Y67.901
G1 F1125 X161.6 Y167.099 E612.93501
G0 F9000 X163.2 Y167.099
G1 F1125 X163.2 Y67.901 E620.85343
G0 F9000 X164.8 Y67.901
G1 F1125 X164.8 Y167.099 E628.77184
G0 F9000 X166.4 Y167.099
